!!! OTL: Literature23
!!! Chapter: 5
!!! Section: I
!!! Page: 349
!!! Mode: 
!!! Encoder: DJB
**kern
*staff1
*I"Piano
=1-
*clefG2
*k[b-]
*F:
*M3/4
8f/L
8g/J
8a/L
8b-/J
8cc\L
8dd\J
=2
4cc\
8ff\
8r
4cc\
=3
8dd\L
8cc\J
8b-/L
8a/J
8g/L
8f/J
=4
4e/
8g/
8r
4c/
=5
8f/L
8e/J
8f/L
8g/J
8a/L
8f/J
=6
4b-\
4a/
4g/
=7
8f/L
8e/J
8f/L
8g/J
8a/L
8f/J
=8
4b-\
4a/
4g/
=9
!!linebreak:original
8b-\L
8cc\J
4dd\
4e/
=10
2.f/
==
*-
